common/src/main/resources/icons/plugins/resharper/Appkind/CoreclrMin.svg

<svg xmlns="http://www.w3.org/2000/svg" width="16" height="16" fill-rule="evenodd" stroke-linejoin="round" stroke-miterlimit="1.414" clip-rule="evenodd" data-big="true" viewBox="0 0 24 24"><path fill="#FFB74D" d="M12 11a1 1 0 0 1 1 1 1 1 0 0 1-1 1 1 1 0 0 1-1-1 1 1 0 0 1 1-1M4.22 4.22C5.65 2.79 8.75 3.43 12 5.56c3.25-2.13 6.35-2.77 7.78-1.34s.79 4.53-1.34 7.78c2.13 3.25 2.77 6.35 1.34 7.78s-4.53.79-7.78-1.34c-3.25 2.13-6.35 2.77-7.78 1.34S3.43 15.25 5.56 12C3.43 8.75 2.79 5.65 4.22 4.22m11.32 4.24c.61.62 1.17 1.25 1.69 1.88 1.38-2.13 1.88-3.96 1.13-4.7-.74-.75-2.57-.25-4.7 1.13.63.52 1.26 1.08 1.88 1.69m-7.08 7.08c-.61-.62-1.17-1.25-1.69-1.88-1.38 2.13-1.88 3.96-1.13 4.7.74.75 2.57.25 4.7-1.13-.63-.52-1.26-1.08-1.88-1.69m-2.82-9.9c-.75.74-.25 2.57 1.13 4.7.52-.63 1.08-1.26 1.69-1.88.62-.61 1.25-1.17 1.88-1.69-2.13-1.38-3.96-1.88-4.7-1.13m4.24 8.48c.7.7 1.42 1.34 2.12 1.91.7-.57 1.42-1.21 2.12-1.91s1.34-1.42 1.91-2.12c-.57-.7-1.21-1.42-1.91-2.12S12.7 8.54 12 7.97c-.7.57-1.42 1.21-2.12 1.91S8.54 11.3 7.97 12c.57.7 1.21 1.42 1.91 2.12m8.48 4.24c.75-.74.25-2.57-1.13-4.7-.52.63-1.08 1.26-1.69 1.88-.62.61-1.25 1.17-1.88 1.69 2.13 1.38 3.96 1.88 4.7 1.13"/></svg>

<!--
  - The MIT License (MIT)
  -
  - Copyright (c) 2015-2024 Elior "Mallowigi" Boukhobza
  -
  - Permission is hereby granted, free of charge, to any person obtaining a copy
  - of this software and associated documentation files (the "Software"), to deal
  - in the Software without restriction, including without limitation the rights
  - to use, copy, modify, merge, publish, distribute, sublicense, and/or sell
  - copies of the Software, and to permit persons to whom the Software is
  - furnished to do so, subject to the following conditions:
  -
  - The above copyright notice and this permission notice shall be included in all
  - copies or substantial portions of the Software.
  -
  - THE SOFTWARE IS PROVIDED "AS IS", WITHOUT WARRANTY OF ANY KIND, EXPRESS OR
  - IMPLIED, INCLUDING BUT NOT LIMITED TO THE WARRANTIES OF MERCHANTABILITY,
  - FITNESS FOR A PARTICULAR PURPOSE AND NONINFRINGEMENT. IN NO EVENT SHALL THE
  - AUTHORS OR COPYRIGHT HOLDERS BE LIABLE FOR ANY CLAIM, DAMAGES OR OTHER
  - LIABILITY, WHETHER IN AN ACTION OF CONTRACT, TORT OR OTHERWISE, ARISING FROM,
  - OUT OF OR IN CONNECTION WITH THE SOFTWARE OR THE USE OR OTHER DEALINGS IN THE
  - SOFTWARE.
  -->

<svg data-big="true" xmlns="http://www.w3.org/2000/svg" clip-rule="evenodd" fill-rule="evenodd" stroke-linejoin="round"
     stroke-miterlimit="1.414" viewBox="0 0 24 24" width="16px" height="16px">
  <path fill="#FFB74D"
        d="M12,11A1,1 0 0,1 13,12A1,1 0 0,1 12,13A1,1 0 0,1 11,12A1,1 0 0,1 12,11M4.22,4.22C5.65,2.79 8.75,3.43 12,5.56C15.25,3.43 18.35,2.79 19.78,4.22C21.21,5.65 20.57,8.75 18.44,12C20.57,15.25 21.21,18.35 19.78,19.78C18.35,21.21 15.25,20.57 12,18.44C8.75,20.57 5.65,21.21 4.22,19.78C2.79,18.35 3.43,15.25 5.56,12C3.43,8.75 2.79,5.65 4.22,4.22M15.54,8.46C16.15,9.08 16.71,9.71 17.23,10.34C18.61,8.21 19.11,6.38 18.36,5.64C17.62,4.89 15.79,5.39 13.66,6.77C14.29,7.29 14.92,7.85 15.54,8.46M8.46,15.54C7.85,14.92 7.29,14.29 6.77,13.66C5.39,15.79 4.89,17.62 5.64,18.36C6.38,19.11 8.21,18.61 10.34,17.23C9.71,16.71 9.08,16.15 8.46,15.54M5.64,5.64C4.89,6.38 5.39,8.21 6.77,10.34C7.29,9.71 7.85,9.08 8.46,8.46C9.08,7.85 9.71,7.29 10.34,6.77C8.21,5.39 6.38,4.89 5.64,5.64M9.88,14.12C10.58,14.82 11.3,15.46 12,16.03C12.7,15.46 13.42,14.82 14.12,14.12C14.82,13.42 15.46,12.7 16.03,12C15.46,11.3 14.82,10.58 14.12,9.88C13.42,9.18 12.7,8.54 12,7.97C11.3,8.54 10.58,9.18 9.88,9.88C9.18,10.58 8.54,11.3 7.97,12C8.54,12.7 9.18,13.42 9.88,14.12M18.36,18.36C19.11,17.62 18.61,15.79 17.23,13.66C16.71,14.29 16.15,14.92 15.54,15.54C14.92,16.15 14.29,16.71 13.66,17.23C15.79,18.61 17.62,19.11 18.36,18.36Z"/>
</svg>
